X:4
T: Erev Ba
C: from Israel
M: C|
L: 1/4
P: First voice
K:G
"G"dgf g/b/ | "Am"a3z | "D7"ab c'/d'/ b | "G"b3z | dgf g/b/ | "Am"a3z |
"D7"ab c'/d'/ b | "B7"b3z | "C"ceg>g | f/g/f/e/ e2 | "Am"Ace>e | "D"d>c B/A/G/F/ |
"Em"G2 E2 | "Am"A2 "D7"A/B/ G | ("G"G4|G2) z2 |  dgf g/b/ | "Am"a3z |
"D7"ab c'/d'/ b | "G"b3z | dgf g/b/ | "Am"a3z | "D7"ab c'/d'/ b | "B7"b3z |
"C"ceg>g | f/g/ f/e/ e2 | "Am"Ace>e | "D"d>c B/A/G/F/ | "Em"G2 E2 | "Am"A2 "D7"A/B/ G |
"G"G>A B c/A/ | "G7"d>e =f/d/B/A/|| [K:C\ "C"G2z2| "Dm7"d/e/f/e/ d/c/B/A/ |]\
   "G7"G2z2 | "C"z/ G/c/B/ c/d/e/f/ |
g g/a/ g2 | "Dm7"f/g/a/g/ f/e/d/c/ | "G7"B/c/d/c/ B/A/ G| "E"^G>B e/d/c/B/|\
   "F"c2 a>a | g/a/g/f/ .f .e |
"Dm"d2f>f | "G"e>d c/B/A/B/ | "Am"c/d/c/B/ A/G/F/E/ | "Dm"D/E/F/D/ "G7"G A/B/ |\
    "C"c3 e| .g.a.g e/d/ |
GcBc/e/ | "Dm7"d3z | "G7"def/g/e| "C"e3z | GcBc/e/ | "Dm7"d3z |
"G7"def/g/e| "E"e3z | "F"FAc>c| B/c/B/A/ A2| "Dm"DFA>A| "G"G>F E/D/C/E/ |
"Am"c2A2 | "Dm"d2 "G7"d/e/c | ("C"c4|"Dm"c2) "G7"d/e/c| ("C"c4| c2) z2  |]
